public/images/icons/linkedin-network.svg

<svg width="40" height="40" viewBox="0 0 40 40" fill="none" xmlns="http://www.w3.org/2000/svg">
<path d="M15.6289 27.3333H12.0733V15.78H15.6289V27.3333ZM13.8511 14.2978C12.5689 14.2978 11.9267 13.7044 11.9267 12.52C11.9267 12.0244 12.1089 11.6044 12.4822 11.26C12.8511 10.9156 13.3067 10.7422 13.8511 10.7422C15.1333 10.7422 15.7756 11.3378 15.7756 12.5222C15.7756 13.7067 15.1356 14.2978 13.8511 14.2978ZM28.8156 27.3333H25.1867V20.8889C25.1867 19.2111 24.5911 18.3711 23.4067 18.3711C22.4689 18.3711 21.8533 18.84 21.5533 19.7778C21.4578 19.9267 21.4067 20.2244 21.4067 20.6667V27.3333H17.7778V19.4822C17.7778 17.7044 17.7511 16.4711 17.7044 15.78H20.8156L21.0378 17.3333C21.8533 16.0978 23.0378 15.4822 24.6667 15.4822C25.9044 15.4822 26.9022 15.9133 27.6667 16.7778C28.4356 17.6422 28.8178 18.8889 28.8178 20.52V27.3333H28.8156ZM20 40C8.97111 40 0 31.0289 0 20C0 8.97111 8.97111 0 20 0C31.0289 0 40 8.97111 40 20C40 31.0289 31.0289 40 20 40ZM20 4.44444C11.4244 4.44444 4.44444 11.4244 4.44444 20C4.44444 28.5756 11.4244 35.5556 20 35.5556C28.5756 35.5556 35.5556 28.5756 35.5556 20C35.5556 11.4244 28.5756 4.44444 20 4.44444Z" fill="#292929"/>
</svg>

<svg width="40" height="40" fill="none" xmlns="http://www.w3.org/2000/svg"><path d="M15.629 27.333h-3.556V15.78h3.556v11.553ZM13.85 14.298c-1.282 0-1.924-.594-1.924-1.778 0-.496.182-.916.555-1.26.37-.344.825-.518 1.37-.518 1.281 0 1.924.596 1.924 1.78 0 1.185-.64 1.776-1.925 1.776Zm14.965 13.035h-3.63V20.89c0-1.678-.595-2.518-1.78-2.518-.937 0-1.553.469-1.853 1.407-.095.149-.146.446-.146.889v6.666h-3.63v-7.85c0-1.779-.026-3.012-.073-3.703h3.112l.222 1.553c.815-1.235 2-1.85 3.629-1.85 1.237 0 2.235.43 3 1.295.769.864 1.15 2.11 1.15 3.742v6.813h-.001ZM20 40C8.971 40 0 31.029 0 20S8.971 0 20 0s20 8.971 20 20-8.971 20-20 20Zm0-35.556c-8.576 0-15.556 6.98-15.556 15.556 0 8.576 6.98 15.556 15.556 15.556 8.576 0 15.556-6.98 15.556-15.556 0-8.576-6.98-15.556-15.556-15.556Z" fill="#292929"/></svg>
